;Generated with Makelangelo 7.78.3
; 2026-02-12 at 12:45:53 EST
;FLAVOR:Marlin-polargraph
;MINX:0.000
;MINY:-1056.000
;MAXX:816.000
;MAXY:0.000
;Start of user gcode

;End of user gcode
G28 X Y
M201 X100.0 Y100.0
M203 X3000.0 Y3000.0
M204 S100.0
M205 X10 Y10
M280 P0 S90.0 T250.0
M0 Ready white and click
G0 X0.000 Y-0.000 F3000.0
M280 P0 S25.0 T150.0
G1 X816.000 Y-0.000 F3000.0
G1 X816.000 Y-1056.000 F3000.0
G1 X0.000 Y-1056.000 F3000.0
G1 X0.000 Y-0.000 F3000.0
M280 P0 S90.0 T250.0
G0 X815.120 Y-0.000 F3000.0
M280 P0 S25.0 T150.0
G1 X815.120 Y-1056.000 F3000.0
M280 P0 S90.0 T250.0
G0 X815.120 Y-0.000 F3000.0
M280 P0 S25.0 T150.0
G1 X815.120 Y-1056.000 F3000.0
M280 P0 S90.0 T250.0
G0 X814.120 Y-0.000 F3000.0
M280 P0 S25.0 T150.0
G1 X814.120 Y-1056.000 F3000.0
M280 P0 S90.0 T250.0
G0 X813.120 Y-0.000 F3000.0
M280 P0 S25.0 T150.0
G1 X813.120 Y-1056.000 F3000.0
M280 P0 S90.0 T250.0
G0 X812.120 Y-0.000 F3000.0
M280 P0 S25.0 T150.0
G1 X812.120 Y-1056.000 F3000.0
M280 P0 S90.0 T250.0
G0 X811.120 Y-0.000 F3000.0
M280 P0 S25.0 T150.0
G1 X811.120 Y-1056.000 F3000.0
M280 P0 S90.0 T250.0
G0 X810.120 Y-0.000 F3000.0
M280 P0 S25.0 T150.0
G1 X810.120 Y-1056.000 F3000.0
M280 P0 S90.0 T250.0
G0 X809.120 Y-0.000 F3000.0
M280 P0 S25.0 T150.0
G1 X809.120 Y-1056.000 F3000.0
M280 P0 S90.0 T250.0
G0 X808.120 Y-0.000 F3000.0
M280 P0 S25.0 T150.0
G1 X808.120 Y-1056.000 F3000.0
M280 P0 S90.0 T250.0
G0 X807.120 Y-0.000 F3000.0
M280 P0 S25.0 T150.0
G1 X807.120 Y-1056.000 F3000.0
M280 P0 S90.0 T250.0
G0 X806.120 Y-0.000 F3000.0
M280 P0 S25.0 T150.0
G1 X806.120 Y-1056.000 F3000.0
M280 P0 S90.0 T250.0
G0 X805.120 Y-0.000 F3000.0
M280 P0 S25.0 T150.0
G1 X805.120 Y-1056.000 F3000.0
M280 P0 S90.0 T250.0
G0 X804.120 Y-0.000 F3000.0
M280 P0 S25.0 T150.0
G1 X804.120 Y-1056.000 F3000.0
M280 P0 S90.0 T250.0
G0 X803.120 Y-0.000 F3000.0
M280 P0 S25.0 T150.0
G1 X803.120 Y-1056.000 F3000.0
M280 P0 S90.0 T250.0
G0 X802.120 Y-0.000 F3000.0
M280 P0 S25.0 T150.0
G1 X802.120 Y-1056.000 F3000.0
M280 P0 S90.0 T250.0
G0 X801.120 Y-0.000 F3000.0
M280 P0 S25.0 T150.0
G1 X801.120 Y-1056.000 F3000.0
M280 P0 S90.0 T250.0
G0 X800.120 Y-0.000 F3000.0
M280 P0 S25.0 T150.0
G1 X800.120 Y-1056.000 F3000.0
M280 P0 S90.0 T250.0
G0 X799.120 Y-0.000 F3000.0
M280 P0 S25.0 T150.0
G1 X799.120 Y-1056.000 F3000.0
M280 P0 S90.0 T250.0
G0 X798.120 Y-0.000 F3000.0
M280 P0 S25.0 T150.0
G1 X798.120 Y-1056.000 F3000.0
M280 P0 S90.0 T250.0
G0 X797.120 Y-0.000 F3000.0
M280 P0 S25.0 T150.0
G1 X797.120 Y-1056.000 F3000.0
M280 P0 S90.0 T250.0
G0 X796.120 Y-0.000 F3000.0
M280 P0 S25.0 T150.0
G1 X796.120 Y-1056.000 F3000.0
M280 P0 S90.0 T250.0
G0 X795.120 Y-0.000 F3000.0
M280 P0 S25.0 T150.0
G1 X795.120 Y-1056.000 F3000.0
M280 P0 S90.0 T250.0
G0 X794.120 Y-0.000 F3000.0
M280 P0 S25.0 T150.0
G1 X794.120 Y-1056.000 F3000.0
M280 P0 S90.0 T250.0
G0 X793.120 Y-0.000 F3000.0
M280 P0 S25.0 T150.0
G1 X793.120 Y-1056.000 F3000.0
M280 P0 S90.0 T250.0
G0 X792.120 Y-0.000 F3000.0
M280 P0 S25.0 T150.0
G1 X792.120 Y-1056.000 F3000.0
M280 P0 S90.0 T250.0
G0 X791.120 Y-0.000 F3000.0
M280 P0 S25.0 T150.0
G1 X791.120 Y-1056.000 F3000.0
M280 P0 S90.0 T250.0
G0 X790.120 Y-0.000 F3000.0
M280 P0 S25.0 T150.0
G1 X790.120 Y-1056.000 F3000.0
M280 P0 S90.0 T250.0
G0 X789.120 Y-0.000 F3000.0
M280 P0 S25.0 T150.0
G1 X789.120 Y-1056.000 F3000.0
M280 P0 S90.0 T250.0
G0 X788.120 Y-0.000 F3000.0
M280 P0 S25.0 T150.0
G1 X788.120 Y-1056.000 F3000.0
M280 P0 S90.0 T250.0
G0 X787.120 Y-0.000 F3000.0
M280 P0 S25.0 T150.0
G1 X787.120 Y-1056.000 F3000.0
M280 P0 S90.0 T250.0
G0 X786.120 Y-0.000 F3000.0
M280 P0 S25.0 T150.0
G1 X786.120 Y-1056.000 F3000.0
M280 P0 S90.0 T250.0
G0 X785.120 Y-0.000 F3000.0
M280 P0 S25.0 T150.0
G1 X785.120 Y-1056.000 F3000.0
M280 P0 S90.0 T250.0
G0 X784.120 Y-0.000 F3000.0
M280 P0 S25.0 T150.0
G1 X784.120 Y-1056.000 F3000.0
M280 P0 S90.0 T250.0
G0 X783.120 Y-0.000 F3000.0
M280 P0 S25.0 T150.0
G1 X783.120 Y-1056.000 F3000.0
M280 P0 S90.0 T250.0
G0 X782.120 Y-0.000 F3000.0
M280 P0 S25.0 T150.0
G1 X782.120 Y-1056.000 F3000.0
M280 P0 S90.0 T250.0
G0 X781.120 Y-0.000 F3000.0
M280 P0 S25.0 T150.0
G1 X781.120 Y-1056.000 F3000.0
M280 P0 S90.0 T250.0
G0 X780.120 Y-0.000 F3000.0
M280 P0 S25.0 T150.0
G1 X780.120 Y-1056.000 F3000.0
M280 P0 S90.0 T250.0
G0 X779.120 Y-0.000 F3000.0
M280 P0 S25.0 T150.0
G1 X779.120 Y-1056.000 F3000.0
M280 P0 S90.0 T250.0
G0 X778.120 Y-0.000 F3000.0
M280 P0 S25.0 T150.0
G1 X778.120 Y-1056.000 F3000.0
M280 P0 S90.0 T250.0
G0 X777.120 Y-0.000 F3000.0
M280 P0 S25.0 T150.0
G1 X777.120 Y-1056.000 F3000.0
M280 P0 S90.0 T250.0
G0 X776.120 Y-0.000 F3000.0
M280 P0 S25.0 T150.0
G1 X776.120 Y-1056.000 F3000.0
M280 P0 S90.0 T250.0
G0 X775.120 Y-0.000 F3000.0
M280 P0 S25.0 T150.0
G1 X775.120 Y-1056.000 F3000.0
M280 P0 S90.0 T250.0
G0 X774.120 Y-0.000 F3000.0
M280 P0 S25.0 T150.0
G1 X774.120 Y-1056.000 F3000.0
M280 P0 S90.0 T250.0
G0 X773.120 Y-0.000 F3000.0
M280 P0 S25.0 T150.0
G1 X773.120 Y-1056.000 F3000.0
M280 P0 S90.0 T250.0
G0 X772.120 Y-0.000 F3000.0
M280 P0 S25.0 T150.0
G1 X772.120 Y-1056.000 F3000.0
M280 P0 S90.0 T250.0
G0 X771.120 Y-0.000 F3000.0
M280 P0 S25.0 T150.0
G1 X771.120 Y-1056.000 F3000.0
M280 P0 S90.0 T250.0
G0 X770.120 Y-0.000 F3000.0
M280 P0 S25.0 T150.0
G1 X770.120 Y-1056.000 F3000.0
M280 P0 S90.0 T250.0
G0 X769.120 Y-0.000 F3000.0
M280 P0 S25.0 T150.0
G1 X769.120 Y-1056.000 F3000.0
M280 P0 S90.0 T250.0
G0 X768.120 Y-0.000 F3000.0
M280 P0 S25.0 T150.0
G1 X768.120 Y-1056.000 F3000.0
M280 P0 S90.0 T250.0
G0 X767.120 Y-0.000 F3000.0
M280 P0 S25.0 T150.0
G1 X767.120 Y-1056.000 F3000.0
M280 P0 S90.0 T250.0
G0 X766.120 Y-0.000 F3000.0
M280 P0 S25.0 T150.0
G1 X766.120 Y-1056.000 F3000.0
M280 P0 S90.0 T250.0
G0 X765.120 Y-0.000 F3000.0
M280 P0 S25.0 T150.0
G1 X765.120 Y-1056.000 F3000.0
M280 P0 S90.0 T250.0
G0 X764.120 Y-0.000 F3000.0
M280 P0 S25.0 T150.0
G1 X764.120 Y-1056.000 F3000.0
M280 P0 S90.0 T250.0
G0 X763.120 Y-0.000 F3000.0
M280 P0 S25.0 T150.0
G1 X763.120 Y-1056.000 F3000.0
M280 P0 S90.0 T250.0
G0 X762.120 Y-0.000 F3000.0
M280 P0 S25.0 T150.0
G1 X762.120 Y-1056.000 F3000.0
M280 P0 S90.0 T250.0
G0 X761.120 Y-0.000 F3000.0
M280 P0 S25.0 T150.0
G1 X761.120 Y-1056.000 F3000.0
M280 P0 S90.0 T250.0
G0 X760.120 Y-0.000 F3000.0
M280 P0 S25.0 T150.0
G1 X760.120 Y-1056.000 F3000.0
M280 P0 S90.0 T250.0
G0 X759.120 Y-0.000 F3000.0
M280 P0 S25.0 T150.0
G1 X759.120 Y-1056.000 F3000.0
M280 P0 S90.0 T250.0
G0 X758.120 Y-0.000 F3000.0
M280 P0 S25.0 T150.0
G1 X758.120 Y-1056.000 F3000.0
M280 P0 S90.0 T250.0
G0 X757.120 Y-0.000 F3000.0
M280 P0 S25.0 T150.0
G1 X757.120 Y-1056.000 F3000.0
M280 P0 S90.0 T250.0
G0 X756.120 Y-0.000 F3000.0
M280 P0 S25.0 T150.0
G1 X756.120 Y-1056.000 F3000.0
M280 P0 S90.0 T250.0
G0 X755.120 Y-0.000 F3000.0
M280 P0 S25.0 T150.0
G1 X755.120 Y-1056.000 F3000.0
M280 P0 S90.0 T250.0
G0 X754.120 Y-0.000 F3000.0
M280 P0 S25.0 T150.0
G1 X754.120 Y-1056.000 F3000.0
M280 P0 S90.0 T250.0
G0 X753.120 Y-0.000 F3000.0
M280 P0 S25.0 T150.0
G1 X753.120 Y-1056.000 F3000.0
M280 P0 S90.0 T250.0
G0 X752.120 Y-0.000 F3000.0
M280 P0 S25.0 T150.0
G1 X752.120 Y-1056.000 F3000.0
M280 P0 S90.0 T250.0
G0 X751.120 Y-0.000 F3000.0
M280 P0 S25.0 T150.0
G1 X751.120 Y-1056.000 F3000.0
M280 P0 S90.0 T250.0
G0 X750.120 Y-0.000 F3000.0
M280 P0 S25.0 T150.0
G1 X750.120 Y-1056.000 F3000.0
M280 P0 S90.0 T250.0
G0 X749.120 Y-0.000 F3000.0
M280 P0 S25.0 T150.0
G1 X749.120 Y-1056.000 F3000.0
M280 P0 S90.0 T250.0
G0 X748.120 Y-0.000 F3000.0
M280 P0 S25.0 T150.0
G1 X748.120 Y-1056.000 F3000.0
M280 P0 S90.0 T250.0
G0 X747.120 Y-0.000 F3000.0
M280 P0 S25.0 T150.0
G1 X747.120 Y-1056.000 F3000.0
M280 P0 S90.0 T250.0
G0 X746.120 Y-0.000 F3000.0
M280 P0 S25.0 T150.0
G1 X746.120 Y-1056.000 F3000.0
M280 P0 S90.0 T250.0
G0 X745.120 Y-0.000 F3000.0
M280 P0 S25.0 T150.0
G1 X745.120 Y-1056.000 F3000.0
M280 P0 S90.0 T250.0
G0 X744.120 Y-0.000 F3000.0
M280 P0 S25.0 T150.0
G1 X744.120 Y-1056.000 F3000.0
M280 P0 S90.0 T250.0
G0 X743.120 Y-0.000 F3000.0
M280 P0 S25.0 T150.0
G1 X743.120 Y-1056.000 F3000.0
M280 P0 S90.0 T250.0
G0 X742.120 Y-0.000 F3000.0
M280 P0 S25.0 T150.0
G1 X742.120 Y-1056.000 F3000.0
M280 P0 S90.0 T250.0
G0 X741.120 Y-0.000 F3000.0
M280 P0 S25.0 T150.0
G1 X741.120 Y-1056.000 F3000.0
M280 P0 S90.0 T250.0
G0 X740.120 Y-0.000 F3000.0
M280 P0 S25.0 T150.0
G1 X740.120 Y-1056.000 F3000.0
M280 P0 S90.0 T250.0
G0 X739.120 Y-0.000 F3000.0
M280 P0 S25.0 T150.0
G1 X739.120 Y-1056.000 F3000.0
M280 P0 S90.0 T250.0
G0 X738.120 Y-0.000 F3000.0
M280 P0 S25.0 T150.0
G1 X738.120 Y-1056.000 F3000.0
M280 P0 S90.0 T250.0
G0 X737.120 Y-0.000 F3000.0
M280 P0 S25.0 T150.0
G1 X737.120 Y-1056.000 F3000.0
M280 P0 S90.0 T250.0
G0 X736.120 Y-0.000 F3000.0
M280 P0 S25.0 T150.0
G1 X736.120 Y-1056.000 F3000.0
M280 P0 S90.0 T250.0
G0 X735.120 Y-0.000 F3000.0
M280 P0 S25.0 T150.0
G1 X735.120 Y-1056.000 F3000.0
M280 P0 S90.0 T250.0
G0 X734.120 Y-0.000 F3000.0
M280 P0 S25.0 T150.0
G1 X734.120 Y-1056.000 F3000.0
M280 P0 S90.0 T250.0
G0 X733.120 Y-0.000 F3000.0
M280 P0 S25.0 T150.0
G1 X733.120 Y-1056.000 F3000.0
M280 P0 S90.0 T250.0
G0 X732.120 Y-0.000 F3000.0
M280 P0 S25.0 T150.0
G1 X732.120 Y-1056.000 F3000.0
M280 P0 S90.0 T250.0
G0 X731.120 Y-0.000 F3000.0
M280 P0 S25.0 T150.0
G1 X731.120 Y-1056.000 F3000.0
M280 P0 S90.0 T250.0
G0 X730.120 Y-0.000 F3000.0
M280 P0 S25.0 T150.0
G1 X730.120 Y-1056.000 F3000.0
M280 P0 S90.0 T250.0
G0 X729.120 Y-0.000 F3000.0
M280 P0 S25.0 T150.0
G1 X729.120 Y-1056.000 F3000.0
M280 P0 S90.0 T250.0
G0 X728.120 Y-0.000 F3000.0
M280 P0 S25.0 T150.0
G1 X728.120 Y-1056.000 F3000.0
M280 P0 S90.0 T250.0
G0 X727.120 Y-0.000 F3000.0
M280 P0 S25.0 T150.0
G1 X727.120 Y-1056.000 F3000.0
M280 P0 S90.0 T250.0
G0 X726.120 Y-0.000 F3000.0
M280 P0 S25.0 T150.0
G1 X726.120 Y-1056.000 F3000.0
M280 P0 S90.0 T250.0
G0 X725.120 Y-0.000 F3000.0
M280 P0 S25.0 T150.0
G1 X725.120 Y-1056.000 F3000.0
M280 P0 S90.0 T250.0
G0 X724.120 Y-0.000 F3000.0
M280 P0 S25.0 T150.0
G1 X724.120 Y-1056.000 F3000.0
M280 P0 S90.0 T250.0
G0 X723.120 Y-0.000 F3000.0
M280 P0 S25.0 T150.0
G1 X723.120 Y-1056.000 F3000.0
M280 P0 S90.0 T250.0
G0 X722.120 Y-0.000 F3000.0
M280 P0 S25.0 T150.0
G1 X722.120 Y-1056.000 F3000.0
M280 P0 S90.0 T250.0
G0 X721.120 Y-0.000 F3000.0
M280 P0 S25.0 T150.0
G1 X721.120 Y-1056.000 F3000.0
M280 P0 S90.0 T250.0
G0 X720.120 Y-0.000 F3000.0
M280 P0 S25.0 T150.0
G1 X720.120 Y-1056.000 F3000.0
M280 P0 S90.0 T250.0
G0 X719.120 Y-0.000 F3000.0
M280 P0 S25.0 T150.0
G1 X719.120 Y-1056.000 F3000.0
M280 P0 S90.0 T250.0
G0 X718.120 Y-0.000 F3000.0
M280 P0 S25.0 T150.0
G1 X718.120 Y-1056.000 F3000.0
M280 P0 S90.0 T250.0
G0 X717.120 Y-0.000 F3000.0
M280 P0 S25.0 T150.0
G1 X717.120 Y-1056.000 F3000.0
M280 P0 S90.0 T250.0
G0 X716.120 Y-0.000 F3000.0
M280 P0 S25.0 T150.0
G1 X716.120 Y-1056.000 F3000.0
M280 P0 S90.0 T250.0
G0 X715.120 Y-0.000 F3000.0
M280 P0 S25.0 T150.0
G1 X715.120 Y-1056.000 F3000.0
M280 P0 S90.0 T250.0
G0 X714.120 Y-0.000 F3000.0
M280 P0 S25.0 T150.0
G1 X714.120 Y-1056.000 F3000.0
M280 P0 S90.0 T250.0
G0 X713.120 Y-0.000 F3000.0
M280 P0 S25.0 T150.0
G1 X713.120 Y-1056.000 F3000.0
M280 P0 S90.0 T250.0
G0 X712.120 Y-0.000 F3000.0
M280 P0 S25.0 T150.0
G1 X712.120 Y-1056.000 F3000.0
M280 P0 S90.0 T250.0
G0 X711.120 Y-0.000 F3000.0
M280 P0 S25.0 T150.0
G1 X711.120 Y-1056.000 F3000.0
M280 P0 S90.0 T250.0
G0 X710.120 Y-0.000 F3000.0
M280 P0 S25.0 T150.0
G1 X710.120 Y-1056.000 F3000.0
M280 P0 S90.0 T250.0
G0 X709.120 Y-0.000 F3000.0
M280 P0 S25.0 T150.0
G1 X709.120 Y-1056.000 F3000.0
M280 P0 S90.0 T250.0
G0 X708.120 Y-0.000 F3000.0
M280 P0 S25.0 T150.0
G1 X708.120 Y-1056.000 F3000.0
M280 P0 S90.0 T250.0
G0 X707.120 Y-0.000 F3000.0
M280 P0 S25.0 T150.0
G1 X707.120 Y-1056.000 F3000.0
M280 P0 S90.0 T250.0
G0 X706.120 Y-0.000 F3000.0
M280 P0 S25.0 T150.0
G1 X706.120 Y-1056.000 F3000.0
M280 P0 S90.0 T250.0
G0 X705.120 Y-0.000 F3000.0
M280 P0 S25.0 T150.0
G1 X705.120 Y-1056.000 F3000.0
M280 P0 S90.0 T250.0
G0 X704.120 Y-0.000 F3000.0
M280 P0 S25.0 T150.0
G1 X704.120 Y-1056.000 F3000.0
M280 P0 S90.0 T250.0
G0 X703.120 Y-0.000 F3000.0
M280 P0 S25.0 T150.0
G1 X703.120 Y-1056.000 F3000.0
M280 P0 S90.0 T250.0
G0 X702.120 Y-0.000 F3000.0
M280 P0 S25.0 T150.0
G1 X702.120 Y-1056.000 F3000.0
M280 P0 S90.0 T250.0
G0 X701.120 Y-0.000 F3000.0
M280 P0 S25.0 T150.0
G1 X701.120 Y-1056.000 F3000.0
M280 P0 S90.0 T250.0
G0 X700.120 Y-0.000 F3000.0
M280 P0 S25.0 T150.0
G1 X700.120 Y-1056.000 F3000.0
M280 P0 S90.0 T250.0
G0 X699.120 Y-0.000 F3000.0
M280 P0 S25.0 T150.0
G1 X699.120 Y-1056.000 F3000.0
M280 P0 S90.0 T250.0
G0 X698.120 Y-0.000 F3000.0
M280 P0 S25.0 T150.0
G1 X698.120 Y-1056.000 F3000.0
M280 P0 S90.0 T250.0
G0 X697.120 Y-0.000 F3000.0
M280 P0 S25.0 T150.0
G1 X697.120 Y-1056.000 F3000.0
M280 P0 S90.0 T250.0
G0 X696.120 Y-0.000 F3000.0
M280 P0 S25.0 T150.0
G1 X696.120 Y-1056.000 F3000.0
M280 P0 S90.0 T250.0
G0 X695.120 Y-0.000 F3000.0
M280 P0 S25.0 T150.0
G1 X695.120 Y-1056.000 F3000.0
M280 P0 S90.0 T250.0
G0 X694.120 Y-0.000 F3000.0
M280 P0 S25.0 T150.0
G1 X694.120 Y-1056.000 F3000.0
M280 P0 S90.0 T250.0
G0 X693.120 Y-0.000 F3000.0
M280 P0 S25.0 T150.0
G1 X693.120 Y-1056.000 F3000.0
M280 P0 S90.0 T250.0
G0 X692.120 Y-0.000 F3000.0
M280 P0 S25.0 T150.0
G1 X692.120 Y-1056.000 F3000.0
M280 P0 S90.0 T250.0
G0 X691.120 Y-0.000 F3000.0
M280 P0 S25.0 T150.0
G1 X691.120 Y-1056.000 F3000.0
M280 P0 S90.0 T250.0
G0 X690.120 Y-0.000 F3000.0
M280 P0 S25.0 T150.0
G1 X690.120 Y-1056.000 F3000.0
M280 P0 S90.0 T250.0
G0 X689.120 Y-0.000 F3000.0
M280 P0 S25.0 T150.0
G1 X689.120 Y-1056.000 F3000.0
M280 P0 S90.0 T250.0
G0 X688.120 Y-0.000 F3000.0
M280 P0 S25.0 T150.0
G1 X688.120 Y-1056.000 F3000.0
M280 P0 S90.0 T250.0
G0 X687.120 Y-0.000 F3000.0
M280 P0 S25.0 T150.0
G1 X687.120 Y-1056.000 F3000.0
M280 P0 S90.0 T250.0
G0 X686.120 Y-0.000 F3000.0
M280 P0 S25.0 T150.0
G1 X686.120 Y-1056.000 F3000.0
M280 P0 S90.0 T250.0
G0 X685.120 Y-0.000 F3000.0
M280 P0 S25.0 T150.0
G1 X685.120 Y-1056.000 F3000.0
M280 P0 S90.0 T250.0
G0 X684.120 Y-0.000 F3000.0
M280 P0 S25.0 T150.0
G1 X684.120 Y-1056.000 F3000.0
M280 P0 S90.0 T250.0
G0 X683.120 Y-0.000 F3000.0
M280 P0 S25.0 T150.0
G1 X683.120 Y-1056.000 F3000.0
M280 P0 S90.0 T250.0
G0 X682.120 Y-0.000 F3000.0
M280 P0 S25.0 T150.0
G1 X682.120 Y-1056.000 F3000.0
M280 P0 S90.0 T250.0
G0 X681.120 Y-0.000 F3000.0
M280 P0 S25.0 T150.0
G1 X681.120 Y-1056.000 F3000.0
M280 P0 S90.0 T250.0
G0 X680.120 Y-0.000 F3000.0
M280 P0 S25.0 T150.0
G1 X680.120 Y-1056.000 F3000.0
M280 P0 S90.0 T250.0
G0 X679.120 Y-0.000 F3000.0
M280 P0 S25.0 T150.0
G1 X679.120 Y-1056.000 F3000.0
M280 P0 S90.0 T250.0
G0 X678.120 Y-0.000 F3000.0
M280 P0 S25.0 T150.0
G1 X678.120 Y-1056.000 F3000.0
M280 P0 S90.0 T250.0
G0 X677.120 Y-0.000 F3000.0
M280 P0 S25.0 T150.0
G1 X677.120 Y-1056.000 F3000.0
M280 P0 S90.0 T250.0
G0 X676.120 Y-0.000 F3000.0
M280 P0 S25.0 T150.0
G1 X676.120 Y-1056.000 F3000.0
M280 P0 S90.0 T250.0
G0 X675.120 Y-0.000 F3000.0
M280 P0 S25.0 T150.0
G1 X675.120 Y-1056.000 F3000.0
M280 P0 S90.0 T250.0
G0 X674.120 Y-0.000 F3000.0
M280 P0 S25.0 T150.0
G1 X674.120 Y-1056.000 F3000.0
M280 P0 S90.0 T250.0
G0 X673.120 Y-0.000 F3000.0
M280 P0 S25.0 T150.0
G1 X673.120 Y-1056.000 F3000.0
M280 P0 S90.0 T250.0
G0 X672.120 Y-0.000 F3000.0
M280 P0 S25.0 T150.0
G1 X672.120 Y-1056.000 F3000.0
M280 P0 S90.0 T250.0
G0 X671.120 Y-0.000 F3000.0
M280 P0 S25.0 T150.0
G1 X671.120 Y-1056.000 F3000.0
M280 P0 S90.0 T250.0
G0 X670.120 Y-0.000 F3000.0
M280 P0 S25.0 T150.0
G1 X670.120 Y-1056.000 F3000.0
M280 P0 S90.0 T250.0
G0 X669.120 Y-0.000 F3000.0
M280 P0 S25.0 T150.0
G1 X669.120 Y-1056.000 F3000.0
M280 P0 S90.0 T250.0
G0 X668.120 Y-0.000 F3000.0
M280 P0 S25.0 T150.0
G1 X668.120 Y-1056.000 F3000.0
M280 P0 S90.0 T250.0
G0 X667.120 Y-0.000 F3000.0
M280 P0 S25.0 T150.0
G1 X667.120 Y-1056.000 F3000.0
M280 P0 S90.0 T250.0
G0 X666.120 Y-0.000 F3000.0
M280 P0 S25.0 T150.0
G1 X666.120 Y-1056.000 F3000.0
M280 P0 S90.0 T250.0
G0 X665.120 Y-0.000 F3000.0
M280 P0 S25.0 T150.0
G1 X665.120 Y-1056.000 F3000.0
M280 P0 S90.0 T250.0
G0 X664.120 Y-0.000 F3000.0
M280 P0 S25.0 T150.0
G1 X664.120 Y-1056.000 F3000.0
M280 P0 S90.0 T250.0
G0 X663.120 Y-0.000 F3000.0
M280 P0 S25.0 T150.0
